app/img/carousel/vk.svg

<svg width="40" height="40" viewBox="0 0 40 40" fill="none" xmlns="http://www.w3.org/2000/svg">
<path d="M20 0C8.9543 0 0 8.9543 0 20C0 31.0457 8.9543 40 20 40C31.0457 40 40 31.0457 40 20C40 8.9543 31.0457 0 20 0ZM31.7369 27.3079L28.2869 27.3552C28.2869 27.3552 27.5448 27.5026 26.5711 26.8289C25.279 25.942 24.0632 23.6395 23.1159 23.9341C22.1685 24.2288 22.1843 26.3026 22.1843 26.3026C22.1873 26.5458 22.1127 26.7837 21.9712 26.9816C21.772 27.1522 21.5264 27.2594 21.2659 27.2895H19.737C19.737 27.2895 16.3159 27.4921 13.3291 24.371C10.0448 20.9816 7.15273 14.2105 7.15273 14.2105C7.15273 14.2105 6.98242 13.8177 7.16852 13.5526C7.32938 13.3234 7.72609 13.2987 7.92641 13.2895C8.78992 13.2491 11.3843 13.2658 11.3843 13.2658C11.6013 13.2604 11.7472 13.2718 12.0159 13.3895C12.2468 13.5036 12.422 13.6736 12.5343 13.9473C12.9334 14.9412 13.3967 15.9082 13.9212 16.8421C15.4633 19.5079 16.1817 20.0895 16.7054 19.8052C17.4659 19.3895 17.2317 16.0395 17.2317 16.0395C17.2317 16.0395 17.2317 14.821 16.8475 14.2816C16.5583 13.9437 16.1504 13.7298 15.708 13.6842C15.5002 13.6552 15.8423 13.1737 16.2844 12.9579C16.9475 12.6316 18.1213 12.6316 19.5054 12.6316C20.1145 12.6086 20.7239 12.6706 21.3159 12.8158C22.5896 13.1237 22.158 14.3079 22.158 17.1552C22.158 18.0658 21.9923 19.35 22.6502 19.7868C22.9344 19.9684 23.6238 19.8131 25.3554 16.8763C25.9078 15.9044 26.3872 14.8929 26.7896 13.8499C26.8671 13.6841 26.9847 13.5404 27.1317 13.4315C27.2872 13.3541 27.462 13.3239 27.6344 13.3446L31.5186 13.3183C31.5186 13.3183 32.6844 13.1788 32.8738 13.7077C33.0633 14.2367 32.437 15.5498 30.8502 17.6551C28.2449 21.1287 27.9554 20.813 30.1186 22.8103C32.1844 24.7288 32.6134 25.663 32.6844 25.7787C33.5421 27.1948 31.7369 27.3079 31.7369 27.3079Z" fill="#4C75A3"/>
</svg>

<svg width="40" height="40" fill="none" xmlns="http://www.w3.org/2000/svg"><path d="M20 0C8.954 0 0 8.954 0 20s8.954 20 20 20 20-8.954 20-20S31.046 0 20 0zm11.737 27.308l-3.45.047s-.742.148-1.716-.526c-1.292-.887-2.508-3.19-3.455-2.895-.947.295-.932 2.369-.932 2.369.003.243-.071.48-.213.679-.199.17-.445.277-.705.308h-1.529s-3.421.202-6.408-2.919c-3.284-3.39-6.176-10.16-6.176-10.16s-.17-.393.016-.658c.16-.23.557-.254.757-.264.864-.04 3.458-.023 3.458-.023.217-.006.363.006.632.123.23.115.406.285.518.558.4.994.863 1.961 1.387 2.895 1.542 2.666 2.26 3.248 2.784 2.963.76-.415.527-3.765.527-3.765s0-1.219-.384-1.758a1.734 1.734 0 00-1.14-.598c-.208-.029.134-.51.576-.726.664-.326 1.837-.326 3.221-.326a6.561 6.561 0 011.81.184c1.275.308.843 1.492.843 4.34 0 .91-.166 2.194.492 2.63.284.182.974.027 2.705-2.91a22.554 22.554 0 001.435-3.026 1.1 1.1 0 01.342-.418.89.89 0 01.502-.087l3.885-.027s1.165-.14 1.355.39c.19.529-.437 1.842-2.024 3.947-2.605 3.474-2.895 3.158-.731 5.155 2.065 1.919 2.494 2.853 2.565 2.969.858 1.416-.947 1.529-.947 1.529z" fill="#4C75A3"/></svg>
